assets/Restroom/Flat/restroom_flat.svg

<svg width="32" height="32" viewBox="0 0 32 32" fill="none" xmlns="http://www.w3.org/2000/svg">
<path d="M2 6C2 3.79086 3.79086 2 6 2H26C28.2091 2 30 3.79086 30 6V26C30 28.2091 28.2091 30 26 30H6C3.79086 30 2 28.2091 2 26V6Z" fill="#00A6ED"/>
<path d="M15.45 25.45C15.45 25.75 15.69 26 16 26C16.31 26 16.55 25.75 16.55 25.44V6.88997C16.55 6.58997 16.31 6.33997 16 6.33997C15.7 6.33997 15.45 6.57997 15.45 6.88997V25.45Z" fill="white"/>
<path d="M22.6301 10.74C23.8451 10.74 24.8301 9.75499 24.8301 8.53997C24.8301 7.32494 23.8451 6.33997 22.6301 6.33997C21.415 6.33997 20.4301 7.32494 20.4301 8.53997C20.4301 9.75499 21.415 10.74 22.6301 10.74Z" fill="white"/>
<path d="M27.95 16.3L26.98 12.72C26.73 12.02 26.06 11.55 25.32 11.55H20.04C19.29 11.55 18.63 12.02 18.38 12.72L17.41 16.3C17.25 16.75 17.46 17.26 17.9 17.43C18.01 17.47 18.12 17.49 18.23 17.49C18.59 17.49 18.93 17.27 19.06 16.91C19.06 16.91 19.7 14.54 19.94 13.67C19.99 13.49 20.16 13.36 20.35 13.36C20.63 13.36 20.83 13.63 20.76 13.9L19.19 19.73C19.1 20.06 19.35 20.39 19.69 20.39H20.34C20.4 20.39 20.45 20.44 20.45 20.5V24.75C20.45 25.22 20.81 25.63 21.29 25.65C21.79 25.67 22.21 25.2701 22.21 24.7701V20.82C22.21 20.58 22.41 20.38 22.65 20.38C22.89 20.38 23.09 20.58 23.09 20.82V24.75C23.09 25.22 23.45 25.63 23.93 25.65C24.43 25.67 24.85 25.2701 24.85 24.7701V20.49C24.85 20.43 24.9 20.38 24.96 20.38H25.67C26.01 20.38 26.26 20.05 26.17 19.72L24.6 13.9C24.53 13.63 24.73 13.36 25.01 13.36C25.2 13.36 25.37 13.49 25.42 13.67C25.71 14.73 26.3 16.91 26.3 16.91C26.43 17.27 26.77 17.49 27.13 17.49C27.24 17.49 27.35 17.47 27.46 17.43C27.9 17.26 28.11 16.75 27.95 16.3Z" fill="white"/>
<path d="M12.04 11.55H6.29997C5.21997 11.55 4.33997 12.43 4.33997 13.51V17.1C4.33997 17.57 4.69997 17.98 5.17997 18C5.67997 18.02 6.09997 17.62 6.09997 17.12V14.0506C6.09997 13.8106 6.29997 13.6106 6.53997 13.6106C6.77997 13.6106 6.97997 13.8106 6.97997 14.0506V24.76C6.97997 25.23 7.33997 25.64 7.81997 25.66C8.31997 25.68 8.73997 25.28 8.73997 24.78V18.9778C8.73997 18.7378 8.93997 18.5378 9.17997 18.5378C9.41997 18.5378 9.61997 18.7378 9.61997 18.9778V24.75C9.61997 25.22 9.97997 25.63 10.46 25.65C10.96 25.67 11.38 25.2701 11.38 24.7701V14.0506C11.38 13.8106 11.58 13.6106 11.82 13.6106C12.06 13.6106 12.26 13.8106 12.26 14.0506V17.12C12.26 17.62 12.68 18.02 13.18 18C13.65 17.98 14.02 17.57 14.02 17.1V13.51C14 12.43 13.12 11.55 12.04 11.55Z" fill="white"/>
<path d="M11.32 8.53997C11.32 9.75499 10.3351 10.74 9.12004 10.74C7.90502 10.74 6.92004 9.75499 6.92004 8.53997C6.92004 7.32494 7.90502 6.33997 9.12004 6.33997C10.3351 6.33997 11.32 7.32494 11.32 8.53997Z" fill="white"/>
</svg>

<svg xmlns="http://www.w3.org/2000/svg" width="32" height="32" fill="none"><path fill="#00A6ED" d="M2 6a4 4 0 0 1 4-4h20a4 4 0 0 1 4 4v20a4 4 0 0 1-4 4H6a4 4 0 0 1-4-4V6Z"/><path fill="#fff" d="M15.45 25.45a.55.55 0 1 0 1.1-.01V6.89c0-.3-.24-.55-.55-.55-.3 0-.55.24-.55.55v18.56ZM22.63 10.74a2.2 2.2 0 1 0 0-4.4 2.2 2.2 0 0 0 0 4.4ZM27.95 16.3l-.97-3.58a1.77 1.77 0 0 0-1.66-1.17h-5.28c-.75 0-1.41.47-1.66 1.17l-.97 3.58c-.16.45.05.96.49 1.13.11.04.22.06.33.06.36 0 .7-.22.83-.58 0 0 .64-2.37.88-3.24.05-.18.22-.31.41-.31.28 0 .48.27.41.54l-1.57 5.83c-.09.33.16.66.5.66h.65c.06 0 .11.05.11.11v4.25c0 .47.36.88.84.9.5.02.92-.38.92-.88v-3.95c0-.24.2-.44.44-.44s.44.2.44.44v3.93c0 .47.36.88.84.9.5.02.92-.38.92-.88v-4.28c0-.06.05-.11.11-.11h.71c.34 0 .59-.33.5-.66L24.6 13.9a.43.43 0 0 1 .41-.54c.19 0 .36.13.41.31.29 1.06.88 3.24.88 3.24.13.36.47.58.83.58.11 0 .22-.02.33-.06.44-.17.65-.68.49-1.13ZM12.04 11.55H6.3c-1.08 0-1.96.88-1.96 1.96v3.59c0 .47.36.88.84.9.5.02.92-.38.92-.88v-3.07c0-.24.2-.44.44-.44s.44.2.44.44v10.71c0 .47.36.88.84.9.5.02.92-.38.92-.88v-5.802c0-.24.2-.44.44-.44s.44.2.44.44v5.772c0 .47.36.88.84.9.5.02.92-.38.92-.88V14.05c0-.24.2-.44.44-.44s.44.2.44.44v3.07c0 .5.42.9.92.88.47-.02.84-.43.84-.9v-3.59c-.02-1.08-.9-1.96-1.98-1.96ZM11.32 8.54a2.2 2.2 0 1 1-4.4 0 2.2 2.2 0 0 1 4.4 0Z"/></svg>
